T: Cameron Highlander, The
M: 4/4
L: 1/8
K: Dmaj
AF |: D2FA DAFA | BB AF AABd | D2FA DAFA | GEED EEFA | D2FA DAFA | BB AF d3A | (3Bcd BA FAEG |1 FDDE D2FE:|2FDDE D2dA :||: B2BA FAEA | FDDE D2dA | B2BA FAdA | FEED E2dA | ABBA FAdA | BB AF E2dA | (3Bcd BA FAEG |1 FDDE D2dA:|2 FDDE Dffe||
